X: 51
T: Skotsk
B:[[Notböcker/Melodier til gamle danske Almuedanse for Violin solo]]
O:Danmark
Z:Søren Bak Vestergaard
M: 2/4
L: 1/8
K: C
E|A3 ^G|A^GAB|c2 A2|E2 (cd)|e3 d|cBAc|B2 ^G2|A2 z:|\
|:G|c3 B|cBcd|e2 c2|g2 e2|!4!c'3 a|f2 a2|gfed|c2 z:|

